X:1
T:Title
%%score ( 1 2 ) 3
L:1/8
M:3/4
K:Bb
V:1 treble nm="Grand Piano, Soprano"
V:2 treble 
V:3 bass nm="Choir Pad, Bass"
V:1
 [DF]2 [DF]2 [EG]2 | [DF]2 [DB]4 | [FA]2 [FA]4 | [EG]2 [EG]4 | z2 A2 z2 | F2 [DB]4 | [Fd]2 [Fc]4 | %7
w: By~Alfred~W.~Hare,~1895 * *|||||||
 F2 [DF]2 [EG]2 | [DF]2 [DB]4 | [Fd]2 [Fc]4 | [FB]2 [FA]4 | [EG]2 [DF]4 | z2 A2 z2 | [EA]2 [DB]4 | %14
w: |||||||
 [DB]2 [EA]4 | [EG]2 F4 | [Fe]2 [Fd]4 | [Ec]2 [DB]4 | [DF]2 [EG]2 [FA]2 | [GB]2 [GB]4 | %20
w: ||||||
 [^FA]2 [DG]4 | [EF]2 [DF]2 [EG]2 | [DF]2 [DB]4 | [Fd]2 [Fc]4 | [FB]2 [FA]4 | [EG]2 [DF]4 | %26
w: ||||||
 z2 A2 z2 | [EA]2 [DB]4- | [DB]4 z2 |] %29
w: |||
V:2
 x6 | x6 | x6 | x6 | [EG]2 E2- [EG]2 | x6 | x6 | x6 | x6 | x6 | x6 | x6 | [FB]2 E2- [EG]2 | x6 | %14
 x6 | x6 | x6 | x6 | x6 | x6 | x6 | x6 | x6 | x6 | x6 | x6 | [FB]2 E2- [EG]2 | x6 | x6 |] %29
V:3
 [B,,B,]2 [B,,B,]4 | [B,,B,]2 [B,,F,]4 | [D,B,]2 [E,B,]4 | [E,B,]2 [E,B,]4 | [E,B,]2 F,2 B,2 | %5
 [F,A,]2 [B,,F,]4 | [B,,B,]2 [F,A,]4 | [D,A,]2 [B,,B,]4 | [B,,B,]2 [B,,F,]4 | [B,,B,]2 [C,A,]4 | %10
 [D,B,]2 [E,B,]4 | [E,B,]2 [F,B,]4 | [F,D]2 [F,C]4 | [F,C]2 [B,,B,]4 | [B,,B,]2 [F,C]4 | %15
 [F,B,]2 [F,A,]4 | [F,C]2 [F,B,]4 | [F,A,]2 [B,,B,]4 | [B,,B,]2 [E,B,]4 | [E,B,]2 [D,D]4 | %20
 [D,C]2 [G,B,]4 | [C,A,]2 [B,,B,]4 | [B,,B,]2 [B,,F,]4 | [B,,B,]2 [C,A,]4 | [D,B,]2 [E,B,]4 | %25
 [E,B,]2 [F,B,]4 | [F,D]2 [F,C]4 | [F,C]2 [B,,B,]4- | [B,,B,]4 z2 |] %29

